app/images/src/mobile-nav/Union.svg

<svg width="19" height="22" viewBox="0 0 19 22" fill="none" xmlns="http://www.w3.org/2000/svg">
<path fill-rule="evenodd" clip-rule="evenodd" d="M13.833 5.81416C13.833 8.10512 12.0048 9.96231 9.74967 9.96231C7.49451 9.96231 5.66634 8.10512 5.66634 5.81416C5.66634 3.5232 7.49451 1.66602 9.74967 1.66602C12.0048 1.66602 13.833 3.5232 13.833 5.81416ZM17.9163 18.2586V20.3327H1.58301V18.2586C1.58301 17.1585 2.01321 16.1034 2.77899 15.3254C3.54476 14.5475 4.58337 14.1105 5.66634 14.1105H13.833C14.916 14.1105 15.9546 14.5475 16.7204 15.3254C17.4861 16.1034 17.9163 17.1585 17.9163 18.2586Z" fill="#A3A3A3"/>
<path d="M17.9163 20.3327V21.3327C18.4686 21.3327 18.9163 20.885 18.9163 20.3327H17.9163ZM1.58301 20.3327H0.583008C0.583008 20.885 1.03072 21.3327 1.58301 21.3327L1.58301 20.3327ZM2.77899 15.3254L2.06634 14.6239H2.06634L2.77899 15.3254ZM16.7204 15.3254L17.433 14.6239H17.433L16.7204 15.3254ZM9.74967 10.9623C12.5719 10.9623 14.833 8.6425 14.833 5.81416H12.833C12.833 7.56774 11.4378 8.96231 9.74967 8.96231V10.9623ZM4.66634 5.81416C4.66634 8.6425 6.92744 10.9623 9.74967 10.9623V8.96231C8.06158 8.96231 6.66634 7.56774 6.66634 5.81416H4.66634ZM9.74967 0.666016C6.92744 0.666016 4.66634 2.98583 4.66634 5.81416H6.66634C6.66634 4.06058 8.06158 2.66602 9.74967 2.66602V0.666016ZM14.833 5.81416C14.833 2.98583 12.5719 0.666016 9.74967 0.666016V2.66602C11.4378 2.66602 12.833 4.06058 12.833 5.81416H14.833ZM18.9163 20.3327V18.2586H16.9163V20.3327H18.9163ZM1.58301 21.3327H17.9163V19.3327H1.58301V21.3327ZM0.583008 18.2586V20.3327H2.58301V18.2586H0.583008ZM2.06634 14.6239C1.11481 15.5905 0.583008 16.8983 0.583008 18.2586H2.58301C2.58301 17.4186 2.91162 16.6162 3.49164 16.0269L2.06634 14.6239ZM5.66634 13.1105C4.31303 13.1105 3.01839 13.6567 2.06634 14.6239L3.49164 16.0269C4.07113 15.4383 4.85372 15.1105 5.66634 15.1105V13.1105ZM13.833 13.1105H5.66634V15.1105H13.833V13.1105ZM17.433 14.6239C16.481 13.6567 15.1863 13.1105 13.833 13.1105V15.1105C14.6456 15.1105 15.4282 15.4383 16.0077 16.0269L17.433 14.6239ZM18.9163 18.2586C18.9163 16.8983 18.3845 15.5905 17.433 14.6239L16.0077 16.0269C16.5877 16.6162 16.9163 17.4186 16.9163 18.2586H18.9163Z" fill="#A3A3A3"/>
</svg>

<svg width="19" height="22" fill="none" xmlns="http://www.w3.org/2000/svg"><path fill-rule="evenodd" clip-rule="evenodd" d="M13.833 5.814c0 2.291-1.828 4.148-4.083 4.148S5.666 8.105 5.666 5.814c0-2.29 1.829-4.148 4.084-4.148s4.083 1.857 4.083 4.148Zm4.083 12.445v2.074H1.583v-2.074c0-1.1.43-2.156 1.196-2.934a4.051 4.051 0 0 1 2.887-1.214h8.167c1.083 0 2.122.436 2.887 1.214a4.182 4.182 0 0 1 1.196 2.934Z" fill="#A3A3A3"/><path d="M17.916 20.333v1a1 1 0 0 0 1-1h-1Zm-16.333 0h-1a1 1 0 0 0 1 1v-1Zm1.196-5.008-.713-.701.713.701Zm13.941 0 .713-.701-.713.701Zm-6.97-4.363c2.822 0 5.083-2.32 5.083-5.148h-2c0 1.754-1.395 3.148-3.083 3.148v2ZM4.666 5.814c0 2.829 2.261 5.148 5.084 5.148v-2c-1.688 0-3.084-1.394-3.084-3.148h-2ZM9.75.666c-2.823 0-5.084 2.32-5.084 5.148h2c0-1.753 1.396-3.148 3.084-3.148v-2Zm5.083 5.148c0-2.828-2.261-5.148-5.083-5.148v2c1.688 0 3.083 1.395 3.083 3.148h2Zm4.083 14.519v-2.074h-2v2.074h2Zm-17.333 1h16.333v-2H1.583v2Zm-1-3.074v2.074h2v-2.074h-2Zm1.483-3.635a5.182 5.182 0 0 0-1.483 3.635h2c0-.84.329-1.643.909-2.232l-1.426-1.403Zm3.6-1.514a5.051 5.051 0 0 0-3.6 1.514l1.426 1.403a3.052 3.052 0 0 1 2.174-.917v-2Zm8.167 0H5.666v2h8.167v-2Zm3.6 1.514a5.051 5.051 0 0 0-3.6-1.514v2c.813 0 1.595.328 2.175.917l1.425-1.403Zm1.483 3.635c0-1.36-.532-2.668-1.483-3.635l-1.425 1.403c.58.59.908 1.392.908 2.232h2Z" fill="#A3A3A3"/></svg>
